!!!COM: Robert Franz
!!!CNT: Deutscher
!!!TXO: Deutsche 
!!!OTL: Die Lotosblume
!!!OPS: Op. 25
!!!ONM: No. 1
!!!ONB: Original key: g minor
!!!LYR: H. Heine
!!!ENC: Brian Bice
!!!YOR: Vocal Album, G. Schirmer, Inc., 1907
!!!ODT: 1870/
!!NB: Vocal melody and text only encoded.
**kern	**silbe
*clefG2	*
*k[b-e-a-d-]	*
*M2/4	*
=1	=1
4r	.
8r	.
{8a-	{Die
=2	=2
8g	Lo-
8f	-tos-
(8cc	-blu-
16b-)	|
16a-	-me
=3	=3
(4g	a2ng-
8f)	-stigt
8a-	sich
=4	=4
8dd-	vor
8cc	der
8b-	Son-
16cc	|
16dd-	-ne
=5	=5
4.ee-}	Pracht,}
{8a-	{und
=6	=6
8ff	mit
8ee-	ge-
8dd-	-senk-
8cc	-tem
=7	=7
(8b-	Haup-
8dd-)	|
8c	-te
8b-	er-
=8	=8
8a-	-war-
16g	-tet
16f	sie
(16e-	tra2um-
16d-)	|
16c	-end
16B-	die
=9	=9
4A-}	Nacht.}
4r	.
=10	=10
4r	.
8r	.
{(16a-	{Der
16b-)	|
=11	=11
8cc	Mond,
8cc	der
8dd-	ist
8cc	ihr
=12	=12
(8b-	Buh-
16cc	|
16dd-)	|
8cc	-le,
8a-	er
=13	=13
8cc	weckt
16b-	sie
16a-	mit
8g-	sei-
8b-	-nem
=14	=14
4.ee-}	Licht,}
{8a-	{und
=15	=15
8a-	ihm
8ff	ent-
8ddn	-schlei-
16bn	-ert
16g	sie
=16	=16
(8g	freund-
8dd-)	|
8cc	-lich
8b-	ihr
=17	=17
8a-	hol-
24cc	|
24b-	|
24a-	-des
8dd-	Blu-
16a-	-men-
16a-	-ge-
=18	=18
4cc}	-sicht.}
8r	.
{8b-	{Sie
=19	=19
8a-	blu2ht
16g	|
16f	und
8cc	glu2ht
(16b-	und
16a-)	|
=20	=20
4g	leuch-
8f	-tet
8a-	und
=21	=21
8dd-	star-
8cc	-ret
8b-	stumm
16cc	in
16dd-	die
=22	=22
4.ee-}	Ho2h';}
{8a-	{sie
=23	=23
8ff	duf-
16b-	-tet
16b-	und
8cc	wei-
16ddn	-net
16ddn	und
=24	=24
(8een	zit-
8ddn)	|
8cc	-tert
8dd-	vor
=25	=25
8dd-	Lie-
16a-	-be
16a-	und
8a-	Lie-
8b-	-bes-
=26	=26
4cc}	-weh,}
8r	.
{8cc	{vor
=27	=27
4cc	Lie-
8cc	-be
8cc	und
=28	=28
4a-	Lie-
4b-	-bes-
=29	=29
4.cc}	-weh.}
8r	.
*-	*-
